icon-themes/breeze_svg/cmd/sc_symbolshapes.quad-bevel.svg

<svg viewBox="0 0 16 16" xmlns="http://www.w3.org/2000/svg"><path d="m2 2v8.25 3.75h8.25 3.75v-12h-3.75-4.5z" fill="#b3b3b3"/><path d="m2.6875 2 3 3h4.625l3-3h-.8125-9zm-.6875.6875v10.625l3-3v-4.625zm12 0-3 3v4.625l3 3v-.8125zm-8.3125 8.3125-3 3h.8125 9.8125l-3-3z" fill="#4d4d4d"/></svg>

<svg xmlns="http://www.w3.org/2000/svg" viewBox="0 0 16 16">
 <path 
     style="fill:#b3b3b3" 
     d="M 2 2 L 2 10.25 L 2 14 L 10.25 14 L 14 14 L 14 2 L 10.25 2 L 5.75 2 L 2 2 z "
     />
 <path 
     style="fill:#4d4d4d" 
     d="M 2.6875 2 L 5.6875 5 L 10.3125 5 L 13.3125 2 L 12.5 2 L 3.5 2 L 2.6875 2 z M 2 2.6875 L 2 13.3125 L 5 10.3125 L 5 5.6875 L 2 2.6875 z M 14 2.6875 L 11 5.6875 L 11 10.3125 L 14 13.3125 L 14 12.5 L 14 2.6875 z M 5.6875 11 L 2.6875 14 L 3.5 14 L 13.3125 14 L 10.3125 11 L 5.6875 11 z "
     />
 </svg>
